X:16
T:La Charge
C:Manu Paris
I:Bourree Centre France
Q:1/4=150
M:2/4
K:F
D4F2(E2| E2)G2A2G2|D3E F2(E2|E2)F2 E2C2|E3E F2(E2|E2)G2A2G2|D3EF2(G2 |G8):|
|A6(B|B4)G2F2|E6F G2(F2|F8)|D6FE2G2|A4G2F2|E4D2(G2|
G2)E2 F2G2|A6B c2(B2|B4)G2F2|E6F G2(F2|F8)|D6FE2G2|A4G2F2|E6(D|D8):|
